!!!!SEGMENT: pl-cz--iii-366--001-001_kreith--partita-dis-allegro.krn
!!!cenid: 18xx:2478
!!!COM: Kreith
!!!COM-rismID: pe30099691
!!!CDT: ~1746-1803/12/23
!!!CNT: Austrian
!!!OPR: Partita Dis
!!!OTL: Allegro
!!!OMV: 001
!!!PDT:
!!!AGN: Secular; Partita
!!!YEC: Copyright 2022 Narodowy Instytut Fryderyka Chopina (https://polishscores.org)
!!!YEM: License CC-BY-4.0 (https://creativecommons.org/licenses/by/4.0)
!!!SMS-siglum: PL-CZ
!!!SMS-shelfmark: III-366
!!!SMS-shelfwork: 001-001 M
!!!SMS-variant:
!!!SMS-altvar:
!!!NIFC-rismSourceID: 300000644
!!!NIFC-rismChildID: 300000644
!!!NIFC-islandoraID: pl-cz:16096
!!!URL-pdf-islandora: https://repozytorium.nifc.pl/islandora/object/pl-cz%3A16096/datastream/PDF/view
!!!URL-scan: https://polish.musicsources.pl/pl/lokalizacje/galeria/rekopisy/1153 @EN{Scan on Polish Music Sources Website} @PL{Skany w portalu Dziedzictwo Muzyki Polskiej w otwartym dostępie}
!!!IIIF:
!!!ONB-nifc: UWAGA: częśći Partity: 1. Allegro, 2. Menuetto, 3. Andante, 4. Presto
!!!AIN: 2 clars 2 cor 1 fagot
!!!key:
**kern	**kern	**kern	**kern	**kern	**dynam
*group2	*group2	*group1	*group1	*group1	*
*part5	*part4	*part3	*part2	*part1	*
*staff5	*staff4	*staff3	*staff2	*staff1	*
*Icor	*Icor	*Ifagot	*Iclars	*Iclars	*
*I"Corno Secundo in Dis.	*I"Corno Imo	*I"Fagotto	*I"Clarinetto Secudo	*I"Clarinetto Primo	*
*I'cor 2	*I'cor 1	*I'fag	*I'cl 2	*I'cl 1	*
*>[A,A,B,B,C]	*>[A,A,B,B,C]	*>[A,A,B,B,C]	*>[A,A,B,B,C]	*>[A,A,B,B,C]	*>[A,A,B,B,C]
*>A	*>A	*>A	*>A	*>A	*>A
*clefG2	*clefG2	*clefF4	*clefG2	*clefG2	*
*ITrd5c9	*ITrd5c9	*	*ITrd1c2	*ITrd1c2	*
*k[b-e-a-]	*k[b-e-a-]	*k[b-e-a-]	*k[b-e-a-]	*k[b-e-a-]	*
*E-:	*E-:	*E-:	*E-:	*E-:	*
*M2/2	*M2/2	*M2/2	*M2/2	*M2/2	*
*met(c|)	*met(c|)	*met(c|)	*met(c|)	*met(c|)	*
*all\right	*all\right	*all\right	*all\right	*all\right	*
=1	=1	=1	=1	=1	=1
*	*	*2\right	*	*2\right	*
!LO:TX:a:t=4	!	!	!	!	!
!LO:TX:a:Bi:t=Allo moderato	!LO:TX:a:t=P:problem=brak partii w źródle [zgodnie z RISM "cor 1 missing"]	!LO:TX:a:t=P:problem=kolejność znaków BB- E- A-	!LO:TX:a:Bi:t=Allo. mo	!LO:TX:a:Bi:t=Allo	!
00r	1ryy	2e-\	2e-/	2ee-\	.
.	.	2d\	2d/	2dd\	.
=2	=2	=2	=2	=2	=2
.	1ryy	2c\	2c/	2cc\	.
.	.	4r	4r	4r	.
.	.	4G\	4G/	4g/	.
=3	=3	=3	=3	=3	=3
!	!	!	!LO:SIC:v:s=2A-/	!	!
.	1ryy	2A-\	2G/	2a-\	.
.	.	2B-\	2B-/	2b-\	.
=4	=4	=4	=4	=4	=4
!	!	!	!LO:SIC:v:s=2E-/	!	!
.	1ryy	2E-\	2F/	2e-/	.
.	.	2rC	2rg	2rg	.
=5	=5	=5	=5	=5	=5
!	!	!LO:TX:a:t=1	!LO:TX:a:t=1	!LO:TX:a:t=1	!
2rg	1ryy	1r	1r	1r	.
4r	.	.	.	.	.
8r	.	.	.	.	.
!LO:TX:a:i:t=Solo	!	!	!	!	!
8e-\	.	.	.	.	.
=6	=6	=6	=6	=6	=6
4.e-\	1ryy	2rC	2rg	2rg	.
!	!	!	!	!	!LO:DY:a:t=for
8f\	.	.	.	.	f
4g\	.	4r	4r	4r	.
4B-/	.	4B-\	4b-\	4bb-\	.
=7	=7	=7	=7	=7	=7
*	*	*	*2\right	*	*
2B-/	1ryy	2B-\	2b-\	2bb-\	.
4G/	.	4G\	4g/	4gg\	.
4E-/	.	4E-\	4e-/	4ee-\	.
!	!	!LO:LB:g=original	!	!	!
=8	=8	=8	=8	=8	=8
2BB-/	1ryy	2BB-/	2B-/	2b-\	.
2rg	.	2rC	4r	4r	.
.	.	.	8r	8r	.
.	.	.	8d/	8f/	.
!	!	!	!	!LO:LB:g=original	!
=9	=9	=9	=9	=9	=9
!LO:TX:a:t=2	!	!LO:TX:a:t=2	!	!	!
0r	1ryy	0r	4.d/	4.f/	.
.	.	.	8e-/	8g/	.
!	!	!	!LO:LB:g=original	!	!
.	.	.	4f/	4a-\	.
.	.	.	8r	8r	.
.	.	.	8f/	8a-\	.
=10	=10	=10	=10	=10	=10
.	1ryy	.	4.f/	4.a-\	.
.	.	.	8g/	8b-\	.
.	.	.	4a-/	4cc\	.
.	.	.	4r	4r	.
=11	=11	=11	=11	=11	=11
!	!	!	!	!	!LO:DY:a:t=for
1e-	1ryy	8E-\L	2g/	2b-\	f
.	.	8B-\	.	.	.
.	.	8G\	.	.	.
.	.	8B-\J	.	.	.
.	.	8E-\L	4.g/	4.ee-\	.
.	.	8B-\	.	.	.
.	.	8G\	.	.	.
.	.	8B-\J	8a-/	8ff\	.
=12	=12	=12	=12	=12	=12
1B-	1ryy	8BB-\L	8g/L	(8ee-\L	.
.	.	8F\	8f/	8dd\)	.
.	.	8D\	8f/	8dd|	.
.	.	8F\J	8f/J	8dd|J	.
.	.	8BB-\L	4f/	4dd\	.
.	.	8F\	.	.	.
.	.	8D\	4r	4r	.
.	.	8F\J	.	.	.
=13	=13	=13	=13	=13	=13
1B-	1ryy	8BB-\L	4.dd\	4.ff\	.
.	.	8F\	.	.	.
.	.	8D\	.	.	.
.	.	8F\J	8cc\	8ee-\	.
.	.	8BB-\L	8b-\L	8dd\L	.
.	.	8F\	8a-\	8cc\	.
.	.	8D\	8g\	8b-\	.
.	.	8F\J	8f\J	8a-\J	.
=14	=14	=14	=14	=14	=14
1e-	1ryy	8E-\L	8f/L	8a-/L	.
.	.	8B-\	8e-/	8g/	.
.	.	8G\	8e-/	8g/	.
.	.	8B-\J	8e-/J	8g/J	.
.	.	8E-\L	4e-/	4g/	.
.	.	8B-\	.	.	.
.	.	8G\	4r	4r	.
.	.	8B-\J	.	.	.
!LO:LB:g=original	!	!LO:LB:g=original	!	!LO:LB:g=original	!
=15	=15	=15	=15	=15	=15
1e-	1ryy	8E-\L	4.B-/	4.b-\	.
.	.	8B-\	.	.	.
.	.	8G\	.	.	.
.	.	8B-\J	16c/LL	16cc\LL	.
.	.	.	16d/JJ	16dd\JJ	.
.	.	8E-\L	4e-/	4ee-\	.
.	.	8B-\	.	.	.
.	.	8G\	4e-/	4ee-\	.
.	.	8B-\J	.	.	.
!	!	!	!LO:LB:g=original	!	!
=16	=16	=16	=16	=16	=16
!	!	!	!LO:SIC:v:s=4c/	!	!
1E-	1ryy	8E-\L	4B-/	4cc\	.
.	.	8c\	.	.	.
.	.	8A-\	4e-/	4ee-\	.
.	.	8c\J	.	.	.
.	.	8E-\L	4a-/	4aa-\	.
.	.	8c\	.	.	.
.	.	8A-\	4r	4r	.
.	.	8c\J	.	.	.
=17	=17	=17	=17	=17	=17
1E-	1ryy	8E-\L	4B-/	4b-\	.
.	.	8B-\	.	.	.
!	!	!	!	!LO:SIC:v:s=4Aee-\	!
.	.	8G\	4e-/	4cc\	.
.	.	8B-\J	.	.	.
.	.	8E-\L	4g/	4gg\	.
.	.	8B-\	.	.	.
.	.	8G\	4r	4r	.
.	.	8B-\J	.	.	.
=18	=18	=18	=18	=18	=18
1B-	1ryy	8BB-\L	8ee-\L	(8gg\L	.
.	.	8B-\	8dd\	8ff\)	.
.	.	8F\	8dd\	8ff'\	.
.	.	8B-\J	8dd\J	8ff'\J	.
.	.	8BB-\L	4dd\	4ff\	.
.	.	8B-\	.	.	.
.	.	8F\	4r	4r	.
.	.	8B-\J	.	.	.
=19	=19	=19	=19	=19	=19
4B-/	1ryy	4BB-/	8dd\L	8ff'\L	.
.	.	.	8ee-\	8gg'\	.
4r	.	4r	8ff\	8aa-'\	.
.	.	.	8ee-\J	8gg'\J	.
2rg	.	2rC	8dd\L	8ff'\L	.
.	.	.	8cc\	8ee-'\	.
.	.	.	8b-\	8dd'\	.
.	.	.	8a-\J	8cc'\J	.
=20	=20	=20	=20	=20	=20
1g	1ryy	1B-	1g	1b-	.
=21	=21	=21	=21	=21	=21
1f	1ryy	1Bn	1f	1a-	.
=22	=22	=22	=22	=22	=22
*2\right	*	*	*	*	*
2e-\	1ryy	2c\	2e-/	2g/	.
2rg	.	2rC	4r	4r	.
.	.	.	4r	4ee-\	.
!	!	!	!	!LO:LB:g=original	!
=23	=23	=23	=23	=23	=23
!LO:TX:a:t=2	!	!	!	!	!
0r	1ryy	1A-	4a-\	4cc\	.
.	.	.	4cc\	4aa-\	.
.	.	.	4cc\	4aa-\	.
.	.	.	4cc\	4aa-\	.
!	!	!	!LO:LB:g=original	!	!
=24	=24	=24	=24	=24	=24
!	!	!LO:N:vis=2	!	!	!
.	1ryy	1B-	4b-\	4gg\	.
.	.	.	4a-\	4ff\	.
.	.	.	4g\	4ee-\	.
.	.	.	4f/	4dd\	.
=25	=25	=25	=25	=25	=25
4r	1ryy	2E-\	2g/	2ee-\	.
8r	.	.	.	.	.
8E-/	.	.	.	.	.
8G/L	.	2rC	2rg	2rg	.
8B-/	.	.	.	.	.
8G/	.	.	.	.	.
8E-/J	.	.	.	.	.
!LO:LB:g=original	!	!	!	!	!
=26	=26	=26	=26	=26	=26
!	!	!LO:TX:t=P:problem=mixed beam	!	!	!
4BB-/	1ryy	8BB-/L	4r	4r	.
.	.	8B-\	.	.	.
4BB-/	.	8F\	4dd\	4bb-\	.
.	.	8D\J	.	.	.
4BB-/	.	4BB-/	4dd\	4bb-\	.
4r	.	4r	4r	4r	.
=27	=27	=27	=27	=27	=27
!LO:TX:a:t=7	!	!LO:TX:a:t=4	!	!	!
00r	1ryy	00r	4.dd\	4.ff\	.
.	.	.	8cc\	8ee-\	.
.	.	.	4b-\	4dd\	.
.	.	.	4b-\	4dd\	.
=28	=28	=28	=28	=28	=28
.	1ryy	.	4b-\	4dd\	.
.	.	.	4a\	4cc\	.
.	.	.	4a\	4cc\	.
.	.	.	4r	4r	.
=29	=29	=29	=29	=29	=29
.	1ryy	.	4.ee-\	4.gg\	.
.	.	.	8dd\	8ff\	.
.	.	.	4cc\	4ee-\	.
.	.	.	4cc\	4ee-\	.
=30	=30	=30	=30	=30	=30
.	1ryy	.	4cc\	4ee-\	.
.	.	.	4b-\	4dd\	.
.	.	.	4b-\	4dd\	.
.	.	.	4r	4r	.
!	!	!	!	!LO:LB:g=original	!
=31	=31	=31	=31	=31	=31
0r	1ryy	4d\	4dd\	4dd\	.
.	.	4r	4r	16ff\LL	.
.	.	.	.	16ee-\	.
.	.	.	.	16dd\	.
.	.	.	.	16cc\JJ	.
.	.	4B-\	4b-\	4b-\	.
.	.	4r	4r	(16dd\LL	.
.	.	.	.	16cc\	.
.	.	.	.	16b-\	.
.	.	.	.	16a-\JJ)	.
!	!	!	!LO:LB:g=original	!	!
=32	=32	=32	=32	=32	=32
.	1ryy	4G\	4g/	4g/	.
.	.	4r	4r	(16gg\LL	.
.	.	.	.	16ff\	.
.	.	.	.	16ee-\	.
.	.	.	.	16dd\JJ)	.
!	!	!LO:LB:g=original	!	!	!
.	.	4c\	4cc\	4cc\	.
.	.	4r	4r	(16ee-\LL	.
.	.	.	.	16dd\	.
.	.	.	.	16cc\	.
.	.	.	.	16b-\JJ)	.
=33	=33	=33	=33	=33	=33
!	!	!	!LO:SIC:v:s=4an/	!	!
1r	1ryy	4A-\	4a-/	4a\	.
.	.	4r	4r	16cc\LL	.
.	.	.	.	16b-\	.
.	.	.	.	16a\	.
.	.	.	.	16g\JJ	.
.	.	4F\	4f/	4f/	.
.	.	4r	4r	4r	.
=34	=34	=34	=34	=34	=34
1B-	1ryy	2BB-/	1b-	4.b-\	.
.	.	.	.	8dd\	.
.	.	2D/	.	4ff\	.
.	.	.	.	4bb-\	.
=35	=35	=35	=35	=35	=35
2rg	1ryy	2E-\	2g/	4gg\	.
.	.	.	.	4ee-\	.
2f\	.	2F\	2c/	4cc\	.
.	.	.	.	4a\	.
!	!	!	!	!LO:LB:g=original	!
=36	=36	=36	=36	=36	=36
1B-	1ryy	2BB-/	2d/	4.b-\	.
.	.	.	.	8dd\	.
.	.	2D\	2b-\	4ff\	.
.	.	.	.	4bb-\	.
=37	=37	=37	=37	=37	=37
2rg	1ryy	2E-\	2g/	4gg\	.
.	.	.	.	4ee-\	.
2f\	.	2F\	2c/	4cc\	.
.	.	.	.	4a\	.
=38	=38	=38	=38	=38	=38
!	!	!	!LO:N:vis=8/	!	!
4B-/	1ryy	4BB-/	4dL/	4b-\	.
!	!	!	!LO:N:vis=8\	!	!
4B-/	.	4B-\	4dd\	4bb-\	.
!	!	!	!LO:N:vis=8\	!	!
4B-/	.	4F\	4dd\	4bb-\	.
!	!	!	!LO:N:vis=8\	!	!
4B-/	.	4D\	4ddJ\	4bb-\	.
!LO:LB:g=original	!	!	!	!	!
=39	=39	=39	=39	=39	=39
2B-/	1ryy	2BB-/	2dd\	2bb-\	.
2ryy	.	2rC	2rg	2rg	.
=40:|!|:	=40:|!|:	=40:|!|:	=40:|!|:	=40:|!|:	=40:|!|:
*>B	*>B	*>B	*>B	*>B	*>B
!LO:TX:a:t=4	!	!	!	!	!
00r	1ryy	2B-\	2b-\	2bb-\	.
.	.	2An\	2a\	2aa\	.
!	!	!LO:LB:g=original	!LO:LB:g=original	!	!
=41	=41	=41	=41	=41	=41
.	1ryy	2G\	2g/	2gg\	.
.	.	4r	4r	4r	.
.	.	4D\	4d/	4dd\	.
=42	=42	=42	=42	=42	=42
.	1ryy	2E-\	2e-/	2ee-\	.
.	.	2F\	2f/	2ff\	.
=43	=43	=43	=43	=43	=43
.	1ryy	2BB-/	2B-/	2b-\	.
.	.	2rC	2rg	2rg	.
!	!	!	!	!LO:LB:g=original	!
=44	=44	=44	=44	=44	=44
1B-	1ryy	4BB-/	4.B-/	4.b-\	.
.	.	4BB-/	.	.	.
.	.	.	8d/	8dd\	.
.	.	4D\	4f/	4ff\	.
.	.	4D\	4a-/	4aa-\	.
=45	=45	=45	=45	=45	=45
!LO:SIC:v:s=2e-\	!	!	!	!	!
2d\	1ryy	4E-\	4g/	4gg\	.
.	.	4E-\	8b-/L	8bb-\L	.
.	.	.	8g/J	8gg\J	.
2rg	.	4G\	4e-/	4ee-\	.
.	.	4G\	4e-/	4ee-\	.
=46	=46	=46	=46	=46	=46
1B-	1ryy	4F\	4d/	4dd\	.
.	.	4F\	4f/	4ff\	.
.	.	4D\	4B-/	4b-\	.
.	.	4D\	4a-/	4aa-\	.
=47	=47	=47	=47	=47	=47
1e-	1ryy	4E-\	4g/	4gg\	.
.	.	4E-\	8b-/L	8bb-\L	.
.	.	.	8g/J	8gg\J	.
.	.	4G\	4e-/	4ee-\	.
.	.	4G\	4e-/	4ee-\	.
=48	=48	=48	=48	=48	=48
1B-	1ryy	4F\	4d/	4dd\	.
.	.	4F\	4f/	4ff\	.
.	.	4D\	4B-/	4b-\	.
.	.	4D\	4a-\	4aa-\	.
!	!	!LO:LB:g=original	!LO:LB:g=original	!	!
=49	=49	=49	=49	=49	=49
2e-\	1ryy	4E-\	4g/	4gg\	.
.	.	4E-\	8b-/L	8bb-\L	.
.	.	.	8g/J	8gg\J	.
2rg	.	4G\	4e-/	4ee-\	.
!	!	!	!LO:SIC:v:s=4e-/	!	!
.	.	4E-\	4d/	4ee-\	.
!	!	!	!	!LO:LB:g=original	!
=50	=50	=50	=50	=50	=50
!LO:TX:a:t=1	!	!	!	!	!
1r	1ryy	4E-\	4e-/	4ee-\	.
.	.	4D\	4d/	4dd\	.
.	.	4C\	4c/	4cc\	.
.	.	4F\	4f/	4ff\	.
=51	=51	=51	=51	=51	=51
2B-/	1ryy	2BB-/	2B-/	2b-\	.
2rg	.	2rC	4r	4r	.
.	.	.	8r	8r	.
.	.	.	8d/	8f/	.
!LO:LB:g=original	!	!	!	!	!
=52	=52	=52	=52	=52	=52
!LO:TX:a:t=2	!	!LO:TX:a:t=2	!	!	!
0r	1ryy	0r	4.d/	4.f/	.
.	.	.	8e-/	8g/	.
.	.	.	4f/	4a-\	.
.	.	.	8r	8r	.
.	.	.	8f/	8a-\	.
=53	=53	=53	=53	=53	=53
.	1ryy	.	4.f/	4.a-\	.
.	.	.	8g/	8b-\	.
.	.	.	4a-/	4cc\	.
.	.	.	4r	4r	.
=54	=54	=54	=54	=54	=54
1e-	1ryy	8E-\L	2g/	2b-\	.
.	.	8B-\	.	.	.
.	.	8G\	.	.	.
.	.	8B-\J	.	.	.
.	.	8E-\L	4.g/	4.ee-\	.
.	.	8B-\	.	.	.
.	.	8G\	.	.	.
.	.	8B-\J	8a-/	8ff\	.
!	!	!	!LO:LB:g=original	!	!
=55	=55	=55	=55	=55	=55
1B-	1ryy	8BB-\L	8g/L	(8ee-\L	.
.	.	8F\	8f/	8dd\)	.
.	.	8D\	8f/	8dd|\	.
.	.	8F\J	8f/J	8dd'\J	.
.	.	8BB-\L	4f/	4dd\	.
.	.	8F\	.	.	.
.	.	8D\	4r	4r	.
.	.	8F\J	.	.	.
=56	=56	=56	=56	=56	=56
1B-	1ryy	8BB-\L	4.dd\	4.ff\	.
.	.	8F\	.	.	.
.	.	8D\	.	.	.
.	.	8F\J	8cc\	8ee-\	.
.	.	8BB-\L	8b-\L	8dd\L	.
.	.	8F\	8a-\	8cc\	.
.	.	8D\	8g\	8b-\	.
.	.	8F\J	8f\J	8a-\J	.
!	!	!LO:LB:g=original	!	!LO:LB:g=original	!
=57	=57	=57	=57	=57	=57
1e-	1ryy	8E-\L	8f/L	(8a-/L	.
.	.	8B-\	8e-/	8g/)	.
.	.	8G\	8e-/	8g'/	.
.	.	8B-\J	8e-/J	8g'/J	.
.	.	8E-\L	4e-/	4g/	.
.	.	8B-\	.	.	.
.	.	8G\	4r	4r	.
.	.	8B-\J	.	.	.
=58	=58	=58	=58	=58	=58
1e-	1ryy	8E-\L	4.B-/	4.b-\	.
.	.	8B-\	.	.	.
.	.	8G\	.	.	.
.	.	8B-\J	16c/LL	16cc\LL	.
.	.	.	16d/JJ	16dd\JJ	.
.	.	8E-\L	4e-/	4ee-\	.
.	.	8B-\	.	.	.
.	.	8G\	4e-/	4ee-\	.
.	.	8B-\J	.	.	.
=59	=59	=59	=59	=59	=59
1F	1ryy	8E-\L	4c/	4cc\	.
.	.	8c\	.	.	.
.	.	8A-\	4e-/	4ee-\	.
.	.	8c\J	.	.	.
.	.	8E-\L	4a-\	4aa-\	.
.	.	8c\	.	.	.
.	.	8A-\	4r	4r	.
.	.	8c\J	.	.	.
=60	=60	=60	=60	=60	=60
1E-	1ryy	8E-\L	4B-/	4b-\	.
.	.	8B-\	.	.	.
.	.	8G\	4e-/	4ee-\	.
.	.	8B-\J	.	.	.
.	.	8E-\L	4g/	4gg\	.
.	.	8B-\	.	.	.
.	.	8G\	4r	4r	.
.	.	8B-\J	.	.	.
!	!	!	!LO:LB:g=original	!	!
=61	=61	=61	=61	=61	=61
!	!	!LO:TX:t=P:problem=mixed beam	!	!	!
1B-	1ryy	8BB-/L	8ee-\L	(8gg\L	.
.	.	8B-\	8dd\	8ff\)	.
.	.	8F\	8dd\	8ff'\	.
.	.	8B-\J	8dd\J	8ff'\J	.
!	!	!LO:TX:t=P:problem=mixed beam	!	!	!
.	.	8BB-/L	4dd\	4ff\	.
.	.	8B-\	.	.	.
.	.	8F\	4r	4r	.
.	.	8B-\J	.	.	.
=62	=62	=62	=62	=62	=62
4B-/	1ryy	4BB-/	8dd\L	8ff\L	.
.	.	.	8ee-\	8gg\	.
4r	.	4r	8ff\	8aa-\	.
.	.	.	8ee-\J	8gg\J	.
2rg	.	2rC	8dd\L	8ff\L	.
.	.	.	8cc\	8ee-\	.
.	.	.	8b-\	8dd\	.
.	.	.	8a-\J	8cc\J	.
!	!	!LO:LB:g=original	!	!LO:LB:g=original	!
=63	=63	=63	=63	=63	=63
1g	1ryy	1B-	1g	1b-	.
!LO:LB:g=original	!	!	!	!	!
=64	=64	=64	=64	=64	=64
1f	1ryy	1Bn	1f	1a-	.
=65	=65	=65	=65	=65	=65
2e-\	1ryy	2c\	2e-/	2g/	.
2rg	.	2rC	4r	4r	.
.	.	.	4g/	4ee-\	.
=66	=66	=66	=66	=66	=66
!LO:TX:a:t=2	!	!	!	!	!
0r	1ryy	1A-	4a-\	4cc\	.
.	.	.	4cc\	4aa-\	.
.	.	.	4cc\	4aa-\	.
.	.	.	4cc\	4aa-\	.
=67	=67	=67	=67	=67	=67
.	1ryy	1B-	4b-\	4gg\	.
.	.	.	4a-\	4ff\	.
.	.	.	4g\	4ee-\	.
.	.	.	4f\	4dd\	.
=68	=68	=68	=68	=68	=68
4r	1ryy	2E-\	2g/	2ee-\	.
8r	.	.	.	.	.
8E-/	.	.	.	.	.
8G/L	.	2rC	2rg	2rg	.
8B-/	.	.	.	.	.
8G/	.	.	.	.	.
8E-/J	.	.	.	.	.
=69	=69	=69	=69	=69	=69
!	!	!LO:TX:t=P:problem=mixed beam	!	!	!
4BB-/	1ryy	8BB-/L	4r	4r	.
.	.	8B-\	.	.	.
4BB-/	.	8F\	4dd\	4bb-\	.
.	.	8D\J	.	.	.
4BB-/	.	4BB-/	4dd\	4bb-\	.
4r	.	4r	4r	4r	.
!	!	!	!LO:LB:g=original	!	!
=70	=70	=70	=70	=70	=70
!LO:TX:a:t=7	!	!LO:TX:a:t=4	!	!	!
00r	1ryy	00r	4.g/	4.b-\	.
.	.	.	8f/	8a-\	.
.	.	.	4e-/	4g\	.
.	.	.	4e-/	4g\	.
=71	=71	=71	=71	=71	=71
.	1ryy	.	4e-/	4g/	.
.	.	.	4d/	4f/	.
.	.	.	4d/	4f/	.
.	.	.	4r	4r	.
!	!	!	!	!LO:LB:g=original	!
=72	=72	=72	=72	=72	=72
.	1ryy	.	4.a-/	4.cc\	.
.	.	.	8g/	8b-\	.
.	.	.	4f/	4a-\	.
.	.	.	4f/	4a-\	.
=73	=73	=73	=73	=73	=73
.	1ryy	.	4f/	(4a-\	.
.	.	.	4e-/	4g\)	.
.	.	.	4e-/	4g|\	.
.	.	.	4r	4r	.
=74	=74	=74	=74	=74	=74
0r	1ryy	4G\	4g/	4gg\	.
.	.	4r	4r	16bb-\LL	.
.	.	.	.	16aa-\	.
.	.	.	.	16gg\	.
.	.	.	.	16ff\JJ	.
.	.	4E-\	4ee-\	4ee-\	.
.	.	4r	4r	16gg\LL	.
.	.	.	.	16ff\	.
.	.	.	.	16ee-\	.
.	.	.	.	16dd\JJ	.
!	!	!LO:LB:g=original	!	!	!
=75	=75	=75	=75	=75	=75
.	1ryy	4C/	4c/	4cc\	.
.	.	4r	4r	16ccc\LL	.
.	.	.	.	16bb-\	.
.	.	.	.	16aa-\	.
.	.	.	.	16gg\JJ	.
.	.	4F\	4f/	4ff\	.
.	.	4r	4r	16aa-\LL	.
.	.	.	.	16gg\	.
.	.	.	.	16ff\	.
.	.	.	.	16ee-\JJ	.
=76	=76	=76	=76	=76	=76
1r	1ryy	4D/	4d/	4dd\	.
.	.	4r	4r	16ff\LL	.
.	.	.	.	16ee-\	.
.	.	.	.	16dd\	.
.	.	.	.	16cc\JJ	.
.	.	4BB-/	4B-/	4b-\	.
.	.	4r	4r	4r	.
!	!	!	!LO:LB:g=original	!LO:LB:g=original	!
=77	=77	=77	=77	=77	=77
1E-	1ryy	2E-\	1e-	4.e-/	.
.	.	.	.	8g/	.
.	.	2G\	.	4b-\	.
.	.	.	.	4ee-\	.
!LO:LB:g=original	!	!	!	!	!
=78	=78	=78	=78	=78	=78
2rg	1ryy	2A-\	2cc\	4cc\	.
.	.	.	.	4a-\	.
2B-/	.	2B-\	2f/	4f\	.
.	.	.	.	4d/	.
=79	=79	=79	=79	=79	=79
1E-	1ryy	2E-\	2g/	4.ee-\	.
.	.	.	.	8gg\	.
.	.	2G\	2f/	4bb-\	.
.	.	.	.	4eee-\	.
=80	=80	=80	=80	=80	=80
1B-	1ryy	2A-\	2cc\	4ccc\	.
.	.	.	.	4aa-\	.
.	.	2B-\	2f/	4ff\	.
.	.	.	.	4dd\	.
!	!	!LO:LB:g=original	!	!	!
=81	=81	=81	=81	=81	=81
4G/	1ryy	4E-\	4g/	4ee-\	.
4G/	.	4e-\	4g/	4ee-\	.
4G/	.	4B-\	4g/	4ee-\	.
4G/	.	4G\	4g/	4ee-\	.
=82	=82	=82	=82	=82	=82
2G/	1ryy	2E-\	2g/	2ee-\	.
2rg	.	2rC	2rg	2rg	.
=83:|!	=83:|!	=83:|!	=83:|!	=83:|!	=83:|!
*>C	*>C	*>C	*>C	*>C	*>C
!LO:TX:a:t=2	!	!	!	!	!
0r	1ryy	2e-\	2e-/	2ee-\	.
.	.	2d\	2d/	2dd\	.
!	!	!	!	!LO:LB:g=original	!
=84	=84	=84	=84	=84	=84
.	1ryy	2c\	2c/	2cc\	.
.	.	4r	4r	4r	.
.	.	4G\	4G/	4g/	.
!	!	!	!LO:LB:g=original	!	!
=85	=85	=85	=85	=85	=85
2rg	1ryy	2A-\	2A-/	2a-\	.
2B-/	.	2B-\	2B-/	2b-\	.
=86	=86	=86	=86	=86	=86
!	!	!	!LO:SIC:v:s=2E-/	!	!
2G/	1ryy	2E-\	2F/	2e-/	.
2rg	.	2rC	2rg	2rg	.
==	==	==	==	==	==
*-	*-	*-	*-	*-	*-
!!!system-decoration: [(g1)][(g2)]
!!!RDF**kern: | = vertical stroke
!!!ENC: Andrzej Kubiczek
!!!END: 2021-06-24
!!!ENC: Tomasz Grochalski
!!!END: 2021-06-17
